src/lib/packages/icons/src/assets/line/wordpress.svg

<svg width="24" height="24" viewBox="0 0 24 24" fill="none" xmlns="http://www.w3.org/2000/svg">
<path d="M12 1.25C6.07 1.25 1.25 6.07 1.25 12C1.25 17.93 6.07 22.75 12 22.75C17.93 22.75 22.75 17.93 22.75 12C22.75 6.07 17.93 1.25 12 1.25ZM12 2.75C14.21 2.75 16.24 3.53 17.83 4.83C17.3 5.14 16.97 5.74 16.97 6.37C16.97 7.19 17.44 7.9 17.96 8.73C18.34 9.39 18.78 10.25 18.78 11.5C18.78 12.36 18.45 13.36 18.02 14.75L17.01 18.1L13.38 7.28999C14 7.25999 14.54 7.2 14.54 7.2C15.09 7.14 15.01 6.35 14.47 6.37C14.47 6.37 12.85 6.50999 11.81 6.50999C10.77 6.50999 9.16 6.37 9.16 6.37C8.62 6.35 8.56001 7.18001 9.10001 7.21001C9.45001 7.25001 9.80999 7.27999 10.15 7.28999L11.72 11.58L9.52 18.17L5.85001 7.28999C6.47001 7.26999 7.00999 7.2 7.00999 7.2C7.55999 7.14 7.49 6.35 6.95 6.37C6.95 6.37 5.64 6.48 4.61 6.5C6.3 4.24 8.99 2.75999 12.02 2.75999L12 2.75ZM2.75 12C2.75 10.97 2.93001 9.98 3.24001 9.05L7.2 19.89C4.54 18.26 2.75 15.34 2.75 12ZM9.42999 20.88L12.18 12.88L15.05 20.72C14.09 21.05 13.07 21.25 12 21.25C11.11 21.25 10.25 21.12 9.42999 20.88ZM17.48 19.43L20.12 11.81C20.48 10.96 20.69 10.06 20.79 9.14999C21.08 10.05 21.24 11 21.24 12C21.24 15.05 19.75 17.74 17.48 19.43Z" fill="currentColor"/>
</svg>

<svg xmlns="http://www.w3.org/2000/svg" width="24" height="24" fill="none"><path fill="currentColor" d="M12 1.25C6.07 1.25 1.25 6.07 1.25 12S6.07 22.75 12 22.75 22.75 17.93 22.75 12 17.93 1.25 12 1.25Zm0 1.5c2.21 0 4.24.78 5.83 2.08-.53.31-.86.91-.86 1.54 0 .82.47 1.53.99 2.36.38.66.82 1.52.82 2.77 0 .86-.33 1.86-.76 3.25l-1.01 3.35-3.63-10.81c.62-.03 1.16-.09 1.16-.09.55-.06.47-.85-.07-.83 0 0-1.62.14-2.66.14s-2.65-.14-2.65-.14c-.54-.02-.6.81-.06.84.35.04.71.07 1.05.08l1.57 4.29-2.2 6.59L5.85 7.29c.62-.02 1.16-.09 1.16-.09.55-.06.48-.85-.06-.83 0 0-1.31.11-2.34.13 1.69-2.26 4.38-3.74 7.41-3.74L12 2.75ZM2.75 12c0-1.03.18-2.02.49-2.95L7.2 19.89C4.54 18.26 2.75 15.34 2.75 12Zm6.68 8.88 2.75-8 2.87 7.84c-.96.33-1.98.53-3.05.53-.89 0-1.75-.13-2.57-.37Zm8.05-1.45 2.64-7.62c.36-.85.57-1.75.67-2.66.29.9.45 1.85.45 2.85 0 3.05-1.49 5.74-3.76 7.43Z"/></svg>
